!!!COM: Gioseffo Zarlino
!!!OPR: Le istitutioni harmoniche
!!!OTL: Soggetto in the fifth manner, canon at the fifth above, after a minim, CF above.
!!!PPR: Francesco Senese
!!!PDT: 1573
!!!PPP: Venice
!!!ONB: Reprint ed., New York: Broude Bros., 1965, Part III, ch. 63, p. 309.
**kern	**kern	**kern
*guida	*conseq	*CF
*k[]	*k[]	*k[]
*M2/2	*M2/2	*M2/2
=1-	=1-	=1-
2r	1r	1A
[2AA	.	.
=2	=2	=2
4AA]	2.E	1A
4BB	.	.
4C	.	.
4D	4F	.
=3	=3	=3
4E	4G	1G
4F	4A	.
2G	4B	.
.	4c	.
=4	=4	=4
1F	2d	1A
.	[2c	.
=5	=5	=5
2.C	2c]	1c
.	[2G	.
4D	.	.
=6	=6	=6
4E	4G]	1B
4F	4A	.
2G	4B	.
.	4c	.
=7	=7	=7
4F	2d	1A
4D	.	.
2F	4c	.
.	4A	.
=8	=8	=8
2E	2c	1G
2G	2B	.
=9	=9	=9
2D	2d	1A
2F	2A	.
=10	=10	=10
4FF	2c	1A
4GG	.	.
4AA	4C	.
4BB	4D	.
=11	=11	=11
4C	4E	1G
4D	4F	.
2E	4G	.
.	4A	.
=12	=12	=12
2D	2B	1F
[2D	2A	.
=13	=13	=13
4D]	2.A	1D
4E	.	.
2F	.	.
.	4B	.
=14	=14	=14
2C	2c	1E
[2C	2G	.
=15	=15	=15
4C]	2.G	1E
4D	.	.
[2E	.	.
.	4A	.
=16	=16	=16
4E]	2.B	1G
4F	.	.
2G	.	.
.	4c	.
=17	=17	=17
2D	2d	1A
[2D	2A	.
=18	=18	=18
4D]	2.A	1D
4E	.	.
2F	.	.
.	4B	.
=19	=19	=19
2.C	2c	1E
.	[2G	.
4D	.	.
=20	=20	=20
4E	4G]	1G
4F	4A	.
2G	4B	.
.	4c	.
=21	=21	=21
2D	2d	1F
2F	2A	.
=22	=22	=22
1C	2c	1E
.	[2G	.
=23	=23	=23
2BB	2G]	1D
2D	2F	.
=24	=24	=24
2C	2A	1E
2G	2G	.
=25	=25	=25
4D	2d	1F
4E	.	.
4F	4A	.
4D	4B	.
=26	=26	=26
4E	4c	1E
4F	4A	.
[2G	4B	.
.	4c	.
=27	=27	=27
2G]	[1d	[1D
.	.	.
2F	.	.
=28	=28	=28
2B-	1d_	1D_
2A	.	.
=29	=29	=29
[1A	1d_	1D_
=30	=30	=30
1A]	1d]	1D]
==	==	==
*-	*-	*-
